X:181
T:New Dance,A. (p)1665.PLFD.181
M:6/4
L:1/4
Q:3/4=100
S:Playford, Dancing Master,2nd Supp. to 3rd Ed.,1665
O:England
H:166
Z:Chris Partington
K:D
f|e3c2B|B3d2e|f>gfec2|B3A2c|
defdB2|df2a2^g|^defB^g2|f3e2:|
|:f|f^gab^g2|f2ea2a|ba^gafg|f3e2f|f^gag2f|
ec2B2c|defe2c|dB2^G2B|B^cdec2|B3A2:|
